wp-content/uploads/2022/nrc-logo.svg

<?xml version="1.0" encoding="UTF-8"?>
<svg width="66px" height="20px" viewBox="0 0 66 20" version="1.1" xmlns="http://www.w3.org/2000/svg" xmlns:xlink="http://www.w3.org/1999/xlink">
    <!-- Generator: Sketch 59 (86127) - https://sketch.com -->
    <title>Group 15</title>
    <desc>Created with Sketch.</desc>
    <g id="--" stroke="none" stroke-width="1" fill="none" fill-rule="evenodd">
        <g id="Logo's-/-NRC" transform="translate(0.000000, -7.000000)">
            <g id="Group-15" transform="translate(0.000000, 7.000000)">
                <polygon id="Fill-1" fill="#CD171A" points="55 1 60.0382703 10.5066912 55 20 58.8888472 20 66 10.5015441 66 10.4984559 58.8888472 1"/>
                <g id="Group-14" fill="#000000">
                    <path d="M0.0693,17.0225 L2.2503,16.5025 L2.2503,4.9395 L0.0003,4.3855 L0.0003,1.7535 L6.8893,0.9575 L7.3743,1.2005 L7.3743,3.0355 L7.5823,3.0355 C9.3483,1.7885 11.1833,0.9225 13.6413,0.9225 C16.5843,0.9225 18.4883,2.2045 18.4883,5.5275 L18.4883,16.5025 L20.5653,17.0225 L20.5653,19.5495 L11.3213,19.5495 L11.3213,17.0225 L13.1213,16.5725 L13.1213,7.3285 C13.1213,5.5275 12.2563,4.9735 10.4903,4.9735 C9.4173,4.9735 8.5173,5.2515 7.6163,5.5625 L7.6163,16.5725 L9.4173,17.0225 L9.4173,19.5495 L0.0693,19.5495 L0.0693,17.0225 Z" id="Fill-2"/>
                    <path d="M21.3613,17.0225 L23.5423,16.5025 L23.5423,4.9395 L21.2923,4.3855 L21.2923,1.7535 L28.1813,0.9575 L28.6663,1.2005 L28.6663,3.7965 L28.8743,3.7965 C29.8433,2.2735 31.4363,0.9575 33.5133,0.9575 C33.8253,0.9575 34.2403,1.0265 34.4483,1.0965 L34.4483,5.8045 C34.0323,5.7015 33.4093,5.6665 32.9243,5.6665 C31.2283,5.6665 29.9823,5.9435 28.9083,6.4975 L28.9083,16.5025 L31.5743,17.0225 L31.5743,19.5495 L21.3613,19.5495 L21.3613,17.0225 Z" id="Fill-4"/>
                    <path d="M34.9668,10.5479 C34.9668,3.7969 39.1218,0.9229 44.9378,0.9229 C47.0158,0.9229 49.0928,1.2349 50.2698,1.6499 L50.2698,7.0169 L46.9458,7.0169 L46.3918,4.3849 C46.0108,4.2469 45.6308,4.1089 44.6268,4.1089 C42.1338,4.1089 40.6108,5.8049 40.6108,10.0979 C40.6108,14.7719 42.7568,16.2609 46.0108,16.2609 C47.9498,16.2609 49.5778,15.8449 50.4778,15.4649 L50.4778,18.3029 C49.3348,19.0999 47.3618,19.9999 44.3148,19.9999 C38.0828,19.9999 34.9668,16.3649 34.9668,10.5479" id="Fill-6"/>
                </g>
            </g>
        </g>
    </g>
</svg>

<svg xmlns="http://www.w3.org/2000/svg" viewBox="0 0 66 20">
    <g fill="none" fill-rule="evenodd">
      <path fill="#CD171A" d="m55 1 5 9.5-5 9.5h3.9l7.1-9.5L58.9 1z"/>
      <g fill="#000">
        <path d="m0 17 2.3-.5V4.9L0 4.4V1.8L6.9 1l.5.2V3h.2a10 10 0 0 1 6-2c3 0 4.9 1.2 4.9 4.5v11l2 .5v2.5h-9.2V17l1.8-.4V7.3c0-1.8-.8-2.3-2.6-2.3-1 0-2 .3-2.9.6v11l1.8.4v2.5H.1V17ZM21.4 17l2.1-.5V4.9l-2.2-.5V1.8l6.9-.8.5.2v2.6h.2c1-1.5 2.5-2.8 4.6-2.8l1 .1v4.7l-1.6-.1c-1.7 0-3 .2-4 .8v10l2.7.5v2.5H21.4V17ZM35 10.5C35 3.8 39 1 45 1c2 0 4 .3 5.3.7V7h-3.4l-.5-2.6c-.4-.2-.8-.3-1.8-.3-2.5 0-4 1.7-4 6 0 4.7 2.2 6.2 5.4 6.2 2 0 3.6-.5 4.5-.8v2.8c-1.2.8-3.1 1.7-6.2 1.7-6.2 0-9.3-3.6-9.3-9.5"/>
      </g>
    </g>
  </svg>
